packages/kaspersky-hexa-ui-icons/src/iconsSVGs/24/PlantMonitoring.svg

<svg width="24" height="24" viewBox="0 0 24 24" fill="none" xmlns="http://www.w3.org/2000/svg">
<path d="M12.0001 2.5L12.6001 1.70001C12.2446 1.43333 11.7557 1.43333 11.4001 1.7L12.0001 2.5Z" fill="black"/>
<path fill-rule="evenodd" clip-rule="evenodd" d="M19.2901 6.3017C19.4315 5.31176 19.4306 5.31162 19.4306 5.31162L19.4296 5.31148L19.4274 5.31117L19.4222 5.31046L19.4092 5.30876C19.3993 5.3075 19.3869 5.306 19.3722 5.30437C19.3428 5.3011 19.304 5.29727 19.2563 5.2936C19.1612 5.28628 19.0305 5.27961 18.8703 5.27961C18.5505 5.27961 18.108 5.30618 17.5914 5.40951C16.8306 5.56167 15.9072 5.88117 14.9853 6.52401C14.8913 5.02336 14.3643 3.86851 13.8321 3.07031C13.5399 2.63192 13.2459 2.30029 13.0197 2.07415C12.9064 1.96083 12.8093 1.87318 12.7368 1.81106C12.7006 1.77998 12.6704 1.7552 12.6473 1.73672C12.6357 1.72747 12.6259 1.71979 12.618 1.71368L12.6076 1.70567L12.6035 1.70255L12.6017 1.70121L12.6001 1.70001C12.6001 1.70001 12.6001 1.70001 12.0001 2.5C11.4001 1.7 11.4001 1.7 11.4001 1.7L11.3985 1.7012L11.3967 1.70254L11.3926 1.70566L11.3822 1.71367C11.3743 1.71978 11.3645 1.72746 11.353 1.73671C11.3299 1.75519 11.2997 1.77997 11.2634 1.81105C11.1909 1.87317 11.0938 1.96082 10.9805 2.07414C10.7544 2.30028 10.4603 2.63191 10.1681 3.0703C9.63592 3.86849 9.1089 5.02335 9.0149 6.524C8.09302 5.88116 7.16961 5.56167 6.4088 5.40951C5.89215 5.30618 5.44973 5.27961 5.12992 5.27961C4.96966 5.27961 4.83904 5.28628 4.74387 5.2936C4.69624 5.29727 4.65736 5.3011 4.62796 5.30437C4.61325 5.306 4.6009 5.3075 4.59099 5.30876L4.57796 5.31046L4.57284 5.31117L4.57063 5.31148L4.56961 5.31162C4.56961 5.31162 4.56866 5.31176 4.71008 6.3017L4.56961 5.31162C4.12963 5.37448 3.78298 5.72031 3.72013 6.1603L4.71008 6.3017C3.72013 6.1603 3.72013 6.1603 3.72013 6.1603L3.71985 6.16227L3.71954 6.16448L3.71884 6.1696L3.71713 6.18263C3.71587 6.19254 3.71438 6.20489 3.71274 6.2196C3.70948 6.249 3.70564 6.28788 3.70198 6.3355C3.69466 6.43067 3.68799 6.5613 3.68799 6.72156C3.68799 7.04136 3.71457 7.48377 3.81791 8.00042C4.02548 9.03824 4.54443 10.3786 5.77076 11.605C5.98229 11.8165 6.19961 12.0094 6.42005 12.1853C6.16585 12.3666 6.0001 12.664 6.0001 13V19C6.0001 20.6569 7.34324 22 9.0001 22H15.0001C16.657 22 18.0001 20.6569 18.0001 19V13C18.0001 12.664 17.8343 12.3666 17.5801 12.1853C17.8006 12.0094 18.0179 11.8165 18.2294 11.605C19.4558 10.3786 19.9747 9.03824 20.1823 8.00042C20.2856 7.48377 20.3122 7.04136 20.3122 6.72156C20.3122 6.5613 20.3055 6.43067 20.2982 6.3355C20.2946 6.28788 20.2907 6.249 20.2875 6.2196C20.2858 6.20489 20.2843 6.19254 20.2831 6.18263L20.2814 6.1696L20.2807 6.16448L20.2803 6.16227L20.2802 6.16125C20.2802 6.16125 20.2801 6.1603 19.2901 6.3017ZM11.8322 4.1797C11.8886 4.09498 11.945 4.01622 12.0001 3.94346C12.0552 4.01622 12.1116 4.09497 12.168 4.17969C12.5809 4.79906 13.0001 5.7343 13.0001 7.00001C13.0001 8.40848 12.4806 9.57523 12.0001 10.3502C11.5196 9.57523 11.0001 8.40848 11.0001 7C11.0001 5.73431 11.4192 4.79907 11.8322 4.1797ZM8.0001 19V14H16.0001V19C16.0001 19.5523 15.5524 20 15.0001 20H9.0001C8.44781 20 8.0001 19.5523 8.0001 19ZM18.2694 7.32237C18.179 7.33486 18.0835 7.3507 17.9836 7.37067C17.2537 7.51665 16.296 7.88159 15.401 8.77657C14.4051 9.77251 13.9474 10.9649 13.7392 11.8526C14.6269 11.6444 15.8193 11.1867 16.8152 10.1908C17.7102 9.29578 18.0751 8.33809 18.2211 7.60817C18.2411 7.50832 18.2569 7.41279 18.2694 7.32237ZM6.01657 7.37067C5.91672 7.3507 5.82119 7.33486 5.73077 7.32237C5.74325 7.41279 5.75909 7.50832 5.77906 7.60817C5.92506 8.33809 6.29 9.29578 7.18498 10.1908C8.18092 11.1867 9.37327 11.6444 10.261 11.8526C10.0528 10.9649 9.59512 9.77251 8.59918 8.77657C7.7042 7.88159 6.74651 7.51665 6.01657 7.37067Z" fill="black"/>
<path d="M19.2901 6.3017L19.4306 5.31162C19.8706 5.37448 20.2174 5.72127 20.2802 6.16125L19.2901 6.3017Z" fill="black"/>
</svg>

<svg xmlns="http://www.w3.org/2000/svg" width="24" height="24" fill="none" viewBox="0 0 24 24"><path fill="#000" fill-rule="evenodd" d="m4.5695 5.3116.1405.9901c-.1415-.99-.1405-.99-.1405-.99M12 3.9435a5 5 0 0 0-.168.2362C11.4191 4.7991 11 5.7343 11 7c0 1.4085.5195 2.5752 1 3.3502.4805-.775 1-1.9417 1-3.3502-.0001-1.2657-.4192-2.201-.8321-2.8203A5 5 0 0 0 12 3.9435M5.7307 7.3224c.0904.0125.186.0283.2858.0483.7299.146 1.6876.5109 2.5826 1.4059.996.996 1.4536 2.1883 1.6618 3.076-.8877-.2082-2.0801-.6659-3.076-1.6618-.895-.895-1.26-1.8527-1.406-2.5826a5 5 0 0 1-.0483-.2858m12.2528.0483c.0998-.02.1954-.0358.2858-.0483a5 5 0 0 1-.0483.2858c-.146.7299-.5109 1.6876-1.4059 2.5826-.996.9959-2.1883 1.4536-3.076 1.6618.2082-.8877.6658-2.08 1.6618-3.076.895-.895 1.8527-1.26 2.5826-1.406M8 14v5c0 .5523.4477 1 1 1h6c.5523 0 1-.4477 1-1v-5zm3.4-12.3-.0016.0012-.0018.0013-.0041.0032-.0104.008a3 3 0 0 0-.1188.0974 5 5 0 0 0-.2829.263c-.2262.2262-.5202.5578-.8125.9962-.532.7982-1.0591 1.953-1.1531 3.4537a6.92 6.92 0 0 0-2.6061-1.1145c-.5167-.1033-.959-.1299-1.2789-.1299a5 5 0 0 0-.386.014 3.5 3.5 0 0 0-.153.0152l-.013.0017-.005.0007-.0023.0003-.001.0001a1.001 1.001 0 0 0-.8495.8487l-.0003.002-.0003.0022-.0007.0051-.0017.013-.0044.037a4 4 0 0 0-.0108.1159 5 5 0 0 0-.014.386c0 .3199.0266.7623.13 1.279.2076 1.0377.7265 2.3781 1.9528 3.6045a7.8 7.8 0 0 0 .6493.5803A.999.999 0 0 0 6 13v6c0 1.6569 1.3432 3 3 3h6c1.6568 0 3-1.3431 3-3v-6a.999.999 0 0 0-.42-.8147 7.8 7.8 0 0 0 .6493-.5803c1.2263-1.2264 1.7453-2.5668 1.9529-3.6046.1033-.5166.1299-.959.1299-1.2788a5 5 0 0 0-.014-.3861 3.5 3.5 0 0 0-.0152-.1529l-.0017-.013-.0007-.0051-.0003-.0022-.0001-.001a1.0025 1.0025 0 0 0-.8496-.8497l-.0011-.0001-.0022-.0003-.0051-.0007-.013-.0017-.037-.0044a4 4 0 0 0-.1159-.0108 5 5 0 0 0-.3861-.014c-.3198 0-.7622.0266-1.2788.1299a6.92 6.92 0 0 0-2.6061 1.1145c-.0941-1.5006-.6211-2.6555-1.1532-3.4537-.2922-.4384-.5863-.77-.8124-.9961a5 5 0 0 0-.2829-.2631 3 3 0 0 0-.1188-.0974l-.0104-.008-.0041-.0032-.0018-.0013L12.6 1.7l-.6.8.6-.8a1 1 0 0 0-1.2 0"/></svg>
